src/assets/img-parallax/earth.svg

<svg width="793px" height="786px" viewBox="-9 -9 793 786" version="1.1" xmlns="http://www.w3.org/2000/svg" xmlns:xlink="http://www.w3.org/1999/xlink">
    <!-- Generator: Sketch 42 (36781) - http://www.bohemiancoding.com/sketch -->
    <desc>Created with Sketch.</desc>
    <defs>
        <polygon id="path-1" points="-5.68434189e-14 779 779 779 779 -2.27373675e-13 -5.68434189e-14 -2.27373675e-13"></polygon>
        <radialGradient cx="44.5956246%" cy="27.3441416%" fx="44.5956246%" fy="27.3441416%" r="33.5425778%" id="radialGradient-3">
            <stop stop-color="#CEE8FC" offset="0%"></stop>
            <stop stop-color="#88C9F9" offset="100%"></stop>
        </radialGradient>
        <path d="M389.5,779 C174.387806,779 -8.52651283e-13,604.612194 -8.52651283e-13,389.5 L-8.52651283e-13,389.5 C-8.52651283e-13,174.387806 174.387806,-2.16004992e-12 389.5,-2.16004992e-12 L389.5,-2.16004992e-12 C604.612194,-2.16004992e-12 779,174.387806 779,389.5 L779,389.5 C779,604.612194 604.612194,779 389.5,779 Z" id="path-4"></path>
    </defs>
    <g id="1f30f" stroke="none" stroke-width="1" fill="none" fill-rule="evenodd" transform="translate(-4.235484, -8.641015)">
        <g id="svg2" transform="translate(-0.000000, 0.000000)">
            <g id="g10" transform="translate(394.000000, 390.000000) scale(-1, 1) rotate(-180.000000) translate(-394.000000, -390.000000) translate(-0.000000, 0.000000)">
                <g id="g12" transform="translate(9.000000, -0.000000)">
                    <g id="g14-Clipped" transform="translate(-0.000000, -0.000000)">
                        <mask id="mask-2" fill="white">
                            <use xlink:href="#path-1"></use>
                        </mask>
                        <g id="path18"></g>
                        <g id="g14" mask="url(#mask-2)">
                            <g transform="translate(-0.000000, -0.000000)" id="g20">
                                <g transform="translate(-0.000000, -0.000000)">
                                    <path d="M779,389.5 C779,174.387806 604.612194,-2.27373675e-13 389.5,-2.27373675e-13 C174.387806,-2.27373675e-13 -5.68434189e-14,174.387806 -5.68434189e-14,389.5 C-5.68434189e-14,604.612194 174.387806,779 389.5,779 C604.612194,779 779,604.612194 779,389.5" id="path22" fill="url(#radialGradient-3)" fill-rule="nonzero"></path>
                                </g>
                            </g>
                        </g>
                    </g>
                </g>
                <g id="g24" transform="translate(0.519519, 0.700807)">
                    <g id="g26-Clipped" transform="translate(-0.000000, -0.000000)">
                        <mask id="mask-5" fill="white">
                            <use xlink:href="#path-4"></use>
                        </mask>
                        <g id="path30"></g>
                        <path d="M166.348958,738.427083 C123.071181,746.541667 25.6961806,685.671472 8.12540278,665.395833 C-9.46701389,645.120194 -52.7447917,540.972222 -60.859375,507.150639 C-68.9739583,473.350694 -45.9934583,328.651444 -40.5837361,285.373667 C-35.1740139,242.095889 27.0594306,166.359778 45.9934583,177.179222 C64.9274861,187.998667 62.222625,208.274306 60.859375,229.913194 C59.5177639,251.552083 59.5177639,255.620194 59.5177639,281.305556 C59.5177639,307.012556 71.6788194,302.944444 83.839875,315.127139 C96.0225694,327.288194 93.3177083,328.651444 113.593347,341.981 C133.890625,355.310556 123.071181,370.565972 121.707931,378.680556 C120.366319,386.795139 108.183625,380.043806 87.9079861,377.338944 C67.6323472,374.634083 74.3836806,384.090278 62.222625,389.5 C50.0399306,394.909722 44.6302083,403.024306 36.515625,427.368056 C28.4010417,451.711806 27.0594306,458.463139 29.7642917,478.760417 C32.4691528,499.036056 41.9253472,480.102028 43.2885972,458.463139 C44.6302083,436.82425 63.5642361,444.938833 63.5642361,431.414528 C63.5642361,417.890222 90.6128472,403.024306 97.3641806,398.956194 C104.137153,394.909722 123.071181,419.253472 129.844153,426.004806 C136.595486,432.777778 144.710069,442.233972 147.414931,447.643694 C150.119792,453.053417 183.919736,457.121528 190.692708,457.121528 C197.444042,457.121528 213.694847,436.82425 213.694847,427.368056 C213.694847,417.890222 221.809431,392.204861 228.560764,377.338944 C235.333736,362.451389 250.199653,359.746528 263.723958,348.927083 C277.248264,338.107639 283.999597,347.585472 283.999597,347.585472 C283.999597,347.585472 278.589875,370.565972 278.589875,389.5 C278.589875,408.434028 294.819042,424.663194 294.819042,424.663194 C294.819042,424.663194 320.526042,405.729167 321.867653,400.319444 C323.230903,394.909722 343.528181,375.975694 344.869792,366.5195 C346.233042,357.041667 357.052486,344.880611 376.960264,342.17575 C396.889681,339.470889 382.737847,365.15625 389.510819,382.748667 C396.262153,400.319444 405.739986,403.024306 417.901042,405.729167 C430.083736,408.434028 439.539931,419.253472 447.654514,430.072917 C455.769097,440.892361 470.656653,455.758278 469.293403,467.940972 C467.951792,480.102028 463.883681,488.216611 458.473958,503.104167 C453.064236,517.970083 474.703125,523.379806 484.180958,540.972222 C493.637153,558.543 484.180958,540.972222 505.819847,546.381944 C527.437097,551.791667 517.980903,551.791667 522.027375,559.90625 C526.095486,568.020833 528.800347,576.135417 524.732236,591.022972 C520.685764,605.888889 505.819847,591.022972 490.932292,591.022972 C476.066375,591.022972 496.342014,611.298611 497.705264,627.527778 C499.046875,643.756944 517.980903,639.710472 531.505208,641.052083 C545.029514,642.415333 549.075986,623.481306 553.144097,619.413194 C557.190569,615.366722 599.126736,646.461806 609.946181,661.327722 C620.765625,676.215278 600.468347,672.147167 605.878069,678.422444 C611.287792,684.697722 573.419736,685.974417 558.553819,688.376333 C543.666264,690.799889 505.819847,692.444444 490.932292,701.619333 C476.066375,710.815861 419.264292,703.891417 404.376736,696.512556 C389.510819,689.112056 380.032986,697.118444 373.281653,707.332 C366.508681,717.523917 338.096819,712.417139 329.982236,718.151444 C321.867653,723.864111 313.753069,708.673611 302.933625,704.627139 C292.114181,700.559028 288.067708,699.217417 274.543403,707.332 C261.019097,715.446583 278.589875,724.902778 259.655847,731.67575 C240.743458,738.427083 216.659375,728.992528 166.348958,738.427083 Z M344.869792,317.821181 C344.869792,302.955264 334.050347,286.726097 344.869792,271.838542 C355.689236,256.950986 365.145431,256.950986 374.623264,255.609375 C384.079458,254.246125 411.149708,255.609375 389.510819,273.180153 C367.850292,290.772569 355.689236,277.248264 358.394097,297.545542 C361.098958,317.821181 344.869792,317.821181 344.869792,317.821181 Z M496.342014,534.210069 C496.342014,519.344153 485.522569,503.114986 496.342014,488.227431 C507.161458,473.339875 474.703125,461.178819 484.180958,459.815569 C493.637153,458.473958 534.210069,463.883681 512.571181,481.454458 C490.932292,499.046875 507.161458,493.637153 509.866319,513.934431 C512.571181,534.210069 496.342014,534.210069 496.342014,534.210069 Z M397.688156,297.534722 C386.933628,277.259083 415.194017,285.373667 428.610128,270.486111 C442.026239,255.620194 436.832906,270.486111 454.425322,277.259083 C471.9961,284.010417 439.537767,298.876333 428.718322,306.990917 C417.898878,315.1055 407.14435,315.408444 397.688156,297.534722 Z M482.817708,286.524856 C466.869847,294.747633 477.407986,275.900161 482.817708,255.235022 C488.227431,234.569883 508.503069,250.193161 527.458736,239.373717 C546.392764,228.554272 547.734375,243.441828 565.326792,238.032106 C582.897569,232.622383 589.648903,220.439689 606.527236,221.802939 C623.383931,223.14455 593.717014,235.327244 586.944042,243.441828 C580.192708,251.556411 565.326792,255.602883 549.097625,255.235022 C532.868458,254.845522 534.210069,273.1953 517.980903,271.83205 C501.751736,270.490439 490.153292,282.73805 482.817708,286.524856 Z M340.061631,183.930556 C320.629908,165.018167 331.341158,177.179222 340.061631,164.996528 C348.782103,152.835472 330.497242,114.945778 329.155631,93.3285278 C327.792381,71.6896389 363.799492,100.079861 377.323797,102.784722 C390.848103,105.489583 386.866547,113.604167 397.685992,121.71875 C408.505436,129.833333 415.538075,131.737556 427.417825,120.918111 C439.275936,110.098667 454.855936,100.079861 454.855936,87.9188056 C454.855936,75.7361111 497.700936,55.4604722 513.930103,63.5750556 C530.159269,71.6896389 539.615464,87.9188056 554.503019,101.421472 C569.368936,114.945778 563.959214,140.652778 568.027325,156.881944 C572.073797,173.111111 558.549492,170.40625 551.798158,183.930556 C545.025186,197.454861 525.268881,209.659194 517.154297,216.497083 C509.039714,223.334972 496.337686,225.671972 485.518242,221.690417 C474.698797,217.708861 467.947464,221.690417 462.537742,232.401667 C457.128019,243.112917 447.650186,239.391028 439.535603,238.027778 C431.421019,236.686167 398.962686,223.140222 380.028658,213.684028 C361.094631,204.206194 352.482353,196.005056 340.061631,183.930556 Z" id="Combined-Shape" fill="#5C913B" fill-rule="nonzero" mask="url(#mask-5)"></path>
                    </g>
                </g>
            </g>
        </g>
    </g>
</svg>

<svg width="793" height="786" viewBox="-9 -9 793 786" xmlns="http://www.w3.org/2000/svg" xmlns:xlink="http://www.w3.org/1999/xlink"><defs><path id="a" d="M0 779h779V0H0z"/><path d="M389.5 779C174.388 779 0 604.612 0 389.5S174.388 0 389.5 0 779 174.388 779 389.5 604.612 779 389.5 779z" id="d"/><radialGradient cx="44.596%" cy="27.344%" fx="44.596%" fy="27.344%" r="33.543%" id="c"><stop stop-color="#CEE8FC" offset="0%"/><stop stop-color="#88C9F9" offset="100%"/></radialGradient></defs><g fill="none" fill-rule="evenodd"><g transform="matrix(1 0 0 -1 4.765 771.359)"><mask id="b" fill="#fff"><use xlink:href="#a"/></mask><g mask="url(#b)"><path d="M779 389.5C779 174.388 604.612 0 389.5 0S0 174.388 0 389.5 174.388 779 389.5 779 779 604.612 779 389.5" fill="url(#c)" fill-rule="nonzero"/></g></g><g transform="matrix(1 0 0 -1 -3.716 770.658)"><mask id="e" fill="#fff"><use xlink:href="#d"/></mask><path d="M166.349 738.427c-43.278 8.115-140.653-52.756-158.224-73.031-17.592-20.276-60.87-124.424-68.984-158.245-8.115-33.8 14.866-178.5 20.275-221.777 5.41-43.278 67.643-119.014 86.577-108.195 18.934 10.82 16.23 31.095 14.866 52.734-1.341 21.64-1.341 25.707-1.341 51.393 0 25.707 12.16 21.638 24.322 33.821 12.183 12.161 9.478 13.524 29.753 26.854 20.298 13.33 9.478 28.585 8.115 36.7-1.342 8.114-13.524 1.363-33.8-1.342-20.276-2.705-13.524 6.751-25.685 12.161-12.183 5.41-17.593 13.524-25.707 37.868-8.115 24.344-9.457 31.095-6.752 51.392 2.705 20.276 12.161 1.342 13.525-20.297 1.341-21.639 20.275-13.524 20.275-27.048 0-13.525 27.049-28.39 33.8-32.459 6.773-4.046 25.707 20.297 32.48 27.049 6.751 6.773 14.866 16.229 17.57 21.639 2.706 5.41 36.506 9.478 43.279 9.478 6.751 0 23.002-20.298 23.002-29.754 0-9.478 8.114-35.163 14.866-50.03 6.773-14.887 21.639-17.591 35.163-28.41 13.524-10.82 20.276-1.343 20.276-1.343s-5.41 22.981-5.41 41.915c0 18.934 16.229 35.163 16.229 35.163s25.707-18.934 27.049-24.344c1.363-5.41 21.66-24.343 23.002-33.8 1.363-9.477 12.182-21.638 32.09-24.343 19.93-2.705 5.778 22.98 12.55 40.573 6.752 17.57 16.23 20.275 28.391 22.98 12.183 2.705 21.639 13.524 29.754 24.344 8.114 10.82 23.002 25.685 21.638 37.868-1.341 12.161-5.41 20.276-10.819 35.163-5.41 14.866 16.23 20.276 25.707 37.868 9.456 17.571 0 0 21.639 5.41 21.617 5.41 12.16 5.41 16.207 13.524 4.068 8.115 6.773 16.23 2.705 31.117-4.046 14.866-18.912 0-33.8 0-14.866 0 5.41 20.276 6.773 36.505 1.342 16.229 20.276 12.182 33.8 13.524 13.525 1.363 17.571-17.57 21.64-21.639 4.046-4.046 45.982 27.049 56.801 41.915 10.82 14.887-9.478 10.82-4.068 17.094 5.41 6.276-32.458 7.552-47.324 9.954-14.888 2.424-52.734 4.068-67.622 13.243-14.866 9.197-71.668 2.272-86.555-5.106-14.866-7.4-24.344.605-31.095 10.819-6.773 10.192-35.185 5.085-43.3 10.82-8.114 5.712-16.229-9.478-27.048-13.525-10.82-4.068-14.866-5.41-28.39 2.705-13.525 8.115 4.046 17.57-14.888 24.344-18.913 6.751-42.997-2.683-93.307 6.751zm178.52-420.606c0-14.866-10.819-31.095 0-45.982 10.82-14.888 20.276-14.888 29.754-16.23 9.456-1.363 36.527 0 14.888 17.571-21.66 17.593-33.822 4.068-31.117 24.366 2.705 20.275-13.524 20.275-13.524 20.275zm151.473 216.39c0-14.867-10.82-31.096 0-45.984 10.82-14.887-21.639-27.048-12.161-28.411 9.456-1.342 50.03 4.068 28.39 21.638-21.639 17.593-5.41 12.183-2.705 32.48 2.705 20.276-13.524 20.276-13.524 20.276zm-98.654-236.676c-10.754-20.276 17.506-12.161 30.922-27.049 13.416-14.866 8.223 0 25.815 6.773 17.571 6.751-14.887 21.617-25.707 29.732-10.82 8.115-21.574 8.417-31.03-9.456zm85.13-11.01c-15.948 8.223-5.41-10.625 0-31.29s25.685-5.042 44.64-15.861c18.935-10.82 20.276 4.068 37.869-1.342 17.57-5.41 24.322-17.592 41.2-16.23 16.857 1.343-12.81 13.525-19.583 21.64-6.751 8.114-21.617 12.16-37.846 11.793-16.23-.39-14.888 17.96-31.117 16.597-16.23-1.342-27.828 10.906-35.163 14.693zM340.062 183.93c-19.432-18.913-8.72-6.752 0-18.934 8.72-12.162-9.565-50.051-10.906-71.668-1.364-21.64 34.643 6.75 48.168 9.456 13.524 2.705 9.543 10.82 20.362 18.934 10.82 8.114 17.852 10.019 29.732-.8 11.858-10.82 27.438-20.84 27.438-33 0-12.183 42.845-32.459 59.074-24.344 16.23 8.115 25.685 24.344 40.573 37.846 14.866 13.525 9.456 39.232 13.524 55.46 4.047 16.23-9.478 13.525-16.229 27.05-6.773 13.524-26.53 25.728-34.644 32.566-8.114 6.838-20.816 9.175-31.636 5.193-10.82-3.981-17.57 0-22.98 10.712-5.41 10.71-14.888 6.989-23.002 5.626-8.115-1.342-40.573-14.888-59.507-24.344-18.934-9.478-27.547-17.679-39.967-29.753z" fill="#5C913B" fill-rule="nonzero" mask="url(#e)"/></g></g></svg>
